icons/fill-new-office-doc-remove-minus.svg

<svg xmlns="http://www.w3.org/2000/svg" width="32px" height="32px" viewBox="0 0 32 32" version="1.1">
    <title>fill-new-office-doc-remove-minus</title>
    <g id="fill-new-office-doc-remove-minus" stroke-width="1" fill-rule="evenodd">
        <path d="M18,2 L18,11 C18,11.5522847 18.4477153,12 19,12 L28,12 L28,29 C28,29.5522847 27.5522847,30 27,30 L5,30 C4.44771525,30 4,29.5522847 4,29 L4,3 C4,2.44771525 4.44771525,2 5,2 L18,2 Z M20,17.5 L12,17.5 C11.4477153,17.5 11,17.9477153 11,18.5 C11,19.0522847 11.4477153,19.5 12,19.5 L20,19.5 C20.5522847,19.5 21,19.0522847 21,18.5 C21,17.9477153 20.5522847,17.5 20,17.5 Z M20.0010929,2.09031818 C20.1086568,2.13942374 20.2076737,2.2076737 20.2928932,2.29289322 L27.7071068,9.70710678 C27.7925934,9.79259345 27.861004,9.89196417 27.9101431,9.99991892 L20,10 L20.0010929,2.09031818 Z" id="&#24418;&#29366;" />
    </g>
</svg>

<svg xmlns="http://www.w3.org/2000/svg" viewBox="0 0 32 32"><path fill="currentColor" d="M18 2v9a1 1 0 0 0 1 1h9v17a1 1 0 0 1-1 1H5a1 1 0 0 1-1-1V3a1 1 0 0 1 1-1zm2 15.5h-8a1 1 0 0 0 0 2h8a1 1 0 0 0 0-2m.001-15.41a1 1 0 0 1 .292.203l7.414 7.414a1 1 0 0 1 .203.293H20z"/></svg>
